X:1
T:Title
%%score 1 2 3 4
L:1/8
M:3/2
K:C
V:1 treble nm="Part_1"
V:2 treble-8 nm="Part_2"
V:3 treble-8 nm="Part_3"
V:4 treble nm="Part_4"
V:1
 z4 z4 D4 | F6 G2 A4 | A4 G2 G4 E2 | F6 D2 C2 F2 | E2 G4 F2 E4 | C2 F2 E2 A4 G2 | F3 D C2 F4 E2- | %7
 ED D3 A, D2 C2 B,C | D4 z4 F4 | F6 D2 E2 G2 | F3 D F2 E4 A2- | AB c3 B A3 F G2 | A4 F2 A3 GFE | %13
 F3 D C4 z2 D2 | F2 E2 F2 G4 E2 | F2 A4 G2 D2 F2 | E4 D2 C4 E2 | D2 F3 E D3 CCB, | D12 || %19
 z4 z4 D4 | F6 G2 E4 | A4 G2 F2 E4 | D2 F2 E2 A3 GFE | D2 C4 F2 E3 D | F12 | z4 z4 A4 | %26
 A6 G2 E3 F | G4 A2 c4 A2 | _B4 A2 A2 G2 FE | D4 z2 G3 ^FFE | G12 || F6 E2 F2 G2 | %32
 A3 G E4 F2 _B2- | B2 A3 G G3 E F2 | G4 F2 G4 E2 | F4 z2 A2 G3 E | F4 E2 D4 F2 | E2 G2 F2 D4 C2 | %38
 D4 A2 B2 c4 | B2 c3 A A4 G2 | A4 F4 E2 F2 | G4 F2 D2 F4- | F2 G2 E4 D2 F2 | E3 D C2 B,2 A,2 F2 | %44
 E2 D2 z2 G2 F3 D | E2 DC A,2 D2 B,CDC | D12 |] %47
V:2
 z4 z4 D4 | D8 F4- | F4 E8 | D8 A4 | c4 B2 A4 G2 | A4 G2 F2 E4 | D4 A6 G2 | F4 D4 E4 | D12 | %9
 d8 c2 B2 | d4 A4 c4 | d2 e3 d c2 A2 B2 | A4 d4 c4 | z2 d2 e4 d4 | A4 d2 e2 c4 | d4 c2 B4 A2- | %16
 A2 G4 A2 c4 | B2 A3 G F2 E4 | D12 || z4 z4 d4 | d6 c4 A2- | A2 c4 d4 c2 | d4 c6 A2 | %23
 _B2 A2 F4 G4 | F12- | F12 | c12 | B4 c4 A4 | G4 F4 G4 | _B2 d4 B2 A4 | G12 || d6 c2 d2 e2 | %32
 c8 d4- | d2 c2 B4 A4 | G4 A2 B2 G4 | z2 A2 D2 F2 E4 | z2 A2 G2 F2 D4 | z2 C2 D4 E4 | D8 A4 | %39
 G2 A4 c2 B4 | A4 z2 d2 c2 d2 | e4 d2 d4 A2 | d2 e2 c4 z2 d2 | c3 B A2 G2 A4 | G2 F2 E4 D4 | %45
 C2 F4 D2 E4 | D12 |] %47
V:3
 z4 z4 A4 | d6 B2 d2 c2 | A4 B4 c3 B | d4 A4 z2 D2 | C4 G2 A2 c2 B2 | A2 D2 z2 d2 e2 c2 | %6
 d4 z2 D4 B2 | A6 F2 G4 | A6 F2 A4 | D4 z2 F2 E4 | D4 d4 A2 F2- | F2 C2 E2 F4 E2 | F2 D6 A4 | %13
 D4 A4 B4 | c4 z4 z2 A2 | D4 A2 E2 G2 D2 | c2 B4 A2 F2 E2 | G2 D2 c3 A G4 | A12 || z4 z4 D4 | %20
 D6 E2 C4 | F4 E2 D2 A4 | z2 D2 A4 F4 | G2 A4 D2 C4 | c8 d3 e | f4 d2 c3 A c2 | F4 z4 A4 | %27
 d4 e6 c2 | d2 e2 f4 d2 _B2- | B2 G2 G4 D4 | d12 || D6 A2 D2 C2 | F3 G A4 D2 G2- | %33
 G2 z2 D2 d3 B c2 | d4 z4 z2 B2 | A2 D2 A4 B4 | A2 D2 z2 A4 B2 | c4 A2 A4 G2 | A4 d4 z2 e2- | %39
 e6 e2 d4 | c4 A2 D2 A2 F2 | C2 D8 F2 | C4 E2 F2 D4 | A3 B c2 d2 c4 | B2 A2 G4 A2 B2 | %45
 c2 A4 F2 G4 | A12 |] %47
V:4
 z12 | z12 | z12 | z12 | z12 | z12 | z12 | z12 | z12 | z12 | z12 | z12 | z12 | z12 | z12 | z12 | %16
 z12 | z12 | z12 || z12 | z12 | z12 | z12 | z12 | z12 | z12 | z12 | z12 | z12 | z12 | z12 || %31
 D,6 A,2 D,2 C,2 | F,3 G, A,4 D,2 G,2- | G,2 C,2 G,4 z2 D,2 | D3 B, C2 D4 B,2 | A,2 D,2 A,4 B,4 | %36
 A,2 D,2 z2 A,4 B,2 | C4 A,2 A,4 G,2 | A,4 D4 C4 | z2 A,2 F,4 G,4 | D,4 A,2 D,2 A,2 F,2 | %41
 E,2 C,2 D,8 | F,2 C,4 E,2 F,2 D,2 | A,3 B, C2 D2 C4 | B,2 A,2 G,4 A,2 B,2 | C2 A,4 F,2 G,4 | %46
 A,12 |] %47

